X: 30694
T: DELAWARE HORNPIPE
C:
%R: hornpipe, reel
B: Elias Howe "The Musician's Companion" Part 3 1844 p.69 #4
S: http://imslp.org/wiki/The_Musician's_Companion_(Howe,_Elias)
Z: 2015 John Chambers <jc:trillian.mit.edu>
N: The rhythms don't match at the ends of the strains; not fixed.
M: 2/4
L: 1/16
K: G
% - - - - - - - - - - - - - - - - - - - - - - - - -
|:\
BGBd BGBd | gfge dBGc | ecdB cABG | E2 A2 A2 dc |\
BGBd BGBd | gfge dBGc | ecdB cABG | E2G2G2 :|
|: g2 |\
dgBg dgBg | dgba gfed | eaca eaca | c2ag fedc |\
dgBg dgBg | dgba gfed | eaca eaca | bagf g4 :|
% - - - - - - - - - - - - - - - - - - - - - - - - -
